X:1
T:Title
%%score { 1 | 2 }
L:1/8
Q:1/4=100
M:4/4
K:C
V:1 treble nm="Grand Piano"
V:2 bass 
V:1
 [EG]3 [EG] [Ec][Ec][_EB][EA] | [EG]4 E4 | D3 E FGAG | E6 z2 | [EG]3 [EG] [Ec][Ec][_EB][EA] | %5
w: Mary~Hubbert~Munford * * * * *|||||
 [EG]4 E4 | D3 G G^FEF | [B,G]6 z2 | G3 G BBAG | [Ec]4 [EG]4 | [FA]3 [Fc] [EG][EG][DF][CE] | %11
w: ||||||
 [B,D]6 z2 | [CE]3 [DF] [EG][EG][Gc][GB] | [GB]4 A4 | G3 c cBAB | [Ec]6 z2 |] %16
w: |||||
V:2
 [C,C]3 [C,C] [C,G,][C,G,][C,^F,][C,F,] | [C,G,]4 [C,G,C]4 | %2
 [G,B,]3[K:treble] [G,C] [G,B,D][G,B,E][G,B,F][G,B,D] | [C,G,C]6 z2 | %4
 [C,C]3 [C,C] [C,G,][C,G,][C,^F,][C,F,] | [C,G,]4 [C,G,C]4 | %6
 [D,G,B,]3 [D,G,B,] [D,A,C][D,A,C][D,G,C][D,A,C] | [G,,G,]6 z2 | %8
 [G,B,F]3 [G,B,F] [G,DF][G,DF][G,CF][G,B,F] | [C,G,]4 [C,C]4 | %10
 [F,C]3 [F,A,] [C,C][C,C][B,,G,][C,G,] | [G,,G,]6 z2 | [C,G,]3 [C,G,] [C,C][C,C][E,C][E,C] | %13
 [F,C]4[K:treble] [F,CF]4 | [G,CE]3 [G,CE] [G,DF][G,DF][G,CF][G,DF] | [C,C]6 z2 |] %16

